public/tools-icons/css.svg

<svg xmlns="http://www.w3.org/2000/svg" width="24" height="24" fill="none" viewBox="0 0 24 24"><g clip-path="url(#a)"><path fill="#c8c2ff" d="M0 0v20.16A3.84 3.84 0 0 0 3.84 24h16.32A3.84 3.84 0 0 0 24 20.16V3.84A3.84 3.84 0 0 0 20.16 0zm14.256 13.08c1.56 0 2.28 1.08 2.304 2.64h-1.608c.024-.288-.048-.6-.144-.84-.096-.192-.288-.264-.552-.264-.456 0-.696.264-.696.84-.024.576.288.888.768 1.08.72.288 1.608.744 1.92 1.296q.432.648.432 1.656c0 1.608-.912 2.592-2.496 2.592-1.656 0-2.4-1.032-2.424-2.688h1.68c0 .792.264 1.176.792 1.176.264 0 .456-.072.552-.24.192-.312.24-1.176-.048-1.512-.312-.408-.912-.6-1.32-.816q-.828-.396-1.224-.936c-.24-.36-.36-.888-.36-1.536 0-1.44.936-2.472 2.424-2.448m5.4 0c1.584 0 2.304 1.08 2.328 2.64h-1.608c0-.288-.048-.6-.168-.84-.096-.192-.264-.264-.528-.264-.48 0-.72.264-.72.84s.288.888.792 1.08c.696.288 1.608.744 1.92 1.296.264.432.408.984.408 1.656.024 1.608-.888 2.592-2.472 2.592-1.68 0-2.424-1.056-2.448-2.688h1.68c0 .744.264 1.176.792 1.176.264 0 .456-.072.552-.24.216-.312.264-1.176-.048-1.512-.288-.408-.888-.6-1.32-.816-.552-.264-.96-.576-1.2-.936s-.36-.888-.36-1.536c-.024-1.44.912-2.472 2.4-2.448m-11.031.018c.711-.006 1.419.198 1.839.63.432.432.672 1.128.648 1.992H9.336c.024-.456-.096-.792-.432-.96-.312-.144-.768-.048-.888.24-.12.264-.192.576-.168.864v3.504c0 .744.264 1.128.768 1.128a.65.65 0 0 0 .552-.264c.168-.24.192-.552.168-.84h1.776c.096 1.632-.984 2.712-2.568 2.688-1.536 0-2.496-.864-2.472-2.472v-4.032c0-.816.24-1.44.696-1.848.432-.408 1.146-.624 1.857-.63"/></g><defs><clipPath id="a"><path fill="#fff" d="M0 0h24v24H0z"/></clipPath></defs></svg>

<svg xmlns="http://www.w3.org/2000/svg" width="24" height="24" fill="none"><g clip-path="url(#clip0_140_54)"><path fill="#c8c2ff" d="M0 0V20.16C0 21.1784 0.40457 22.1551 1.12471 22.8753C1.84485 23.5954 2.82157 24 3.84 24H20.16C21.1784 24 22.1551 23.5954 22.8753 22.8753C23.5954 22.1551 24 21.1784 24 20.16V3.84C24 2.82157 23.5954 1.84485 22.8753 1.12471C22.1551 0.40457 21.1784 0 20.16 0L0 0ZM14.256 13.08C15.816 13.08 16.536 14.16 16.56 15.72H14.952C14.976 15.432 14.904 15.12 14.808 14.88C14.712 14.688 14.52 14.616 14.256 14.616C13.8 14.616 13.56 14.88 13.56 15.456C13.536 16.032 13.848 16.344 14.328 16.536C15.048 16.824 15.936 17.28 16.248 17.832C16.536 18.264 16.68 18.816 16.68 19.488C16.68 21.096 15.768 22.08 14.184 22.08C12.528 22.08 11.784 21.048 11.76 19.392H13.44C13.44 20.184 13.704 20.568 14.232 20.568C14.496 20.568 14.688 20.496 14.784 20.328C14.976 20.016 15.024 19.152 14.736 18.816C14.424 18.408 13.824 18.216 13.416 18C12.864 17.736 12.456 17.424 12.192 17.064C11.952 16.704 11.832 16.176 11.832 15.528C11.832 14.088 12.768 13.056 14.256 13.08ZM19.656 13.08C21.24 13.08 21.96 14.16 21.984 15.72H20.376C20.376 15.432 20.328 15.12 20.208 14.88C20.112 14.688 19.944 14.616 19.68 14.616C19.2 14.616 18.96 14.88 18.96 15.456C18.96 16.032 19.248 16.344 19.752 16.536C20.448 16.824 21.36 17.28 21.672 17.832C21.936 18.264 22.08 18.816 22.08 19.488C22.104 21.096 21.192 22.08 19.608 22.08C17.928 22.08 17.184 21.024 17.16 19.392H18.84C18.84 20.136 19.104 20.568 19.632 20.568C19.896 20.568 20.088 20.496 20.184 20.328C20.4 20.016 20.448 19.152 20.136 18.816C19.848 18.408 19.248 18.216 18.816 18C18.264 17.736 17.856 17.424 17.616 17.064C17.376 16.704 17.256 16.176 17.256 15.528C17.232 14.088 18.168 13.056 19.656 13.08ZM8.625 13.098C9.336 13.092 10.044 13.296 10.464 13.728C10.896 14.16 11.136 14.856 11.112 15.72H9.336C9.36 15.264 9.24 14.928 8.904 14.76C8.592 14.616 8.136 14.712 8.016 15C7.896 15.264 7.824 15.576 7.848 15.864V19.368C7.848 20.112 8.112 20.496 8.616 20.496C8.72261 20.5007 8.82874 20.4791 8.92501 20.433C9.02128 20.387 9.10473 20.3179 9.168 20.232C9.336 19.992 9.36 19.68 9.336 19.392H11.112C11.208 21.024 10.128 22.104 8.544 22.08C7.008 22.08 6.048 21.216 6.072 19.608V15.576C6.072 14.76 6.312 14.136 6.768 13.728C7.2 13.32 7.914 13.104 8.625 13.098Z"/></g><defs><clipPath id="clip0_140_54"><path fill="#fff" d="M0 0H24V24H0z"/></clipPath></defs></svg>
